www/assets/icons/line_axis.svg

<svg xmlns="http://www.w3.org/2000/svg" width="24" height="24" viewBox="0 0 24 24" fill='currentColor'><path d="m22 7.93-1.41-1.41-4.03 4.53L9.5 4.5 2 12.01l1.5 1.5 6.14-6.15 5.59 5.18-1.73 1.95-4-4L2 18l1.5 1.5 6-6.01 4 4 3.19-3.59 3.9 3.61L22 16.1l-3.98-3.7z"/></svg>

<svg width="24" height="24" viewBox="0 0 24 24" xmlns="http://www.w3.org/2000/svg" fill='currentColor'><path d="M22 7.93L20.59 6.52L16.56 11.05L9.5 4.5L2 12.01L3.5 13.51L9.64 7.36L15.23 12.54L13.5 14.49L9.5 10.49L2 18L3.5 19.5L9.5 13.49L13.5 17.49L16.69 13.9L20.59 17.51L22 16.1L18.02 12.4L22 7.93Z"/></svg>
